images/icons/iconheartwhite.svg

<svg width="30" height="30" viewBox="0 0 30 30" fill="none" xmlns="http://www.w3.org/2000/svg">
<path d="M9.25 6.5625C5.77393 6.5625 2.8125 9.16163 2.8125 12.5372C2.8125 14.8659 3.90293 16.8265 5.34811 18.4505C6.78833 20.069 8.64643 21.4275 10.3262 22.5645L13.2245 24.5264C13.5419 24.7412 13.9581 24.7412 14.2755 24.5264L17.1738 22.5646C17.7109 22.201 18.2663 21.8147 18.8204 21.4046C18.9653 21.2973 19.0115 21.1015 18.9315 20.9399L17.2279 17.501C17.1475 17.3386 16.9264 17.3131 16.8111 17.4529L16.7201 17.5632C16.2452 18.1388 15.5379 18.4722 14.7917 18.4722H12.5C11.1193 18.4722 10 17.3529 10 15.9722C10 14.5915 11.1193 13.4722 12.5 13.4722H13.3775C13.5268 13.4722 13.6682 13.4055 13.7632 13.2904L15.7278 10.909C16.2757 10.2449 17.1267 9.90948 17.9804 10.0211C18.834 10.1327 19.5702 10.6757 19.9289 11.4584L20.9323 13.6476C21.0376 13.8772 21.3368 13.9385 21.5551 13.8113C21.9266 13.5949 22.3572 13.4722 22.8125 13.4722H24.298C24.4868 13.4722 24.6472 13.332 24.6626 13.1439C24.679 12.9445 24.6875 12.7423 24.6875 12.5372C24.6875 9.16163 21.7261 6.5625 18.25 6.5625C16.4582 6.5625 14.8814 7.40267 13.75 8.48979C12.6186 7.40267 11.0418 6.5625 9.25 6.5625Z" fill="white"/>
<path d="M18.5085 12.1094C18.374 11.8159 18.0979 11.6123 17.7778 11.5704C17.4577 11.5286 17.1385 11.6544 16.9331 11.9034L14.3497 15.0347H12.5C11.9822 15.0347 11.5625 15.4545 11.5625 15.9722C11.5625 16.49 11.9822 16.9097 12.5 16.9097H14.7917C15.0715 16.9097 15.3367 16.7847 15.5148 16.5688L17.4273 14.2506L19.6686 19.1406C19.8031 19.4341 20.0792 19.6377 20.3993 19.6796C20.7194 19.7214 21.0385 19.5956 21.244 19.3466L23.2544 16.9097H26.25C26.7678 16.9097 27.1875 16.49 27.1875 15.9722C27.1875 15.4545 26.7678 15.0347 26.25 15.0347H22.8125C22.5326 15.0347 22.2674 15.1597 22.0893 15.3756L20.7497 16.9994L18.5085 12.1094Z" fill="white"/>
</svg>

<svg width="30" height="30" fill="none" xmlns="http://www.w3.org/2000/svg"><path d="M9.25 6.563c-3.476 0-6.438 2.599-6.438 5.974 0 2.329 1.09 4.29 2.536 5.914 1.44 1.618 3.298 2.976 4.978 4.113l2.899 1.962a.938.938 0 0 0 1.05 0l2.899-1.961c.537-.364 1.092-.75 1.646-1.16a.372.372 0 0 0 .111-.465L17.229 17.5a.25.25 0 0 0-.417-.048l-.09.11a2.5 2.5 0 0 1-1.93.91H12.5a2.5 2.5 0 0 1 0-5h.877a.5.5 0 0 0 .386-.183l1.965-2.381a2.5 2.5 0 0 1 4.2.55l1.004 2.189c.106.23.405.29.623.163.372-.216.802-.339 1.258-.339h1.485c.189 0 .35-.14.365-.328.016-.2.024-.402.024-.607 0-3.375-2.96-5.975-6.437-5.975-1.792 0-3.369.84-4.5 1.928-1.131-1.087-2.708-1.928-4.5-1.928Z" fill="#fff"/><path d="M18.509 12.11a.938.938 0 0 0-1.576-.207l-2.583 3.132H12.5a.938.938 0 0 0 0 1.875h2.292c.28 0 .545-.125.723-.341l1.912-2.318 2.242 4.89a.938.938 0 0 0 1.575.206l2.01-2.437h2.996a.937.937 0 1 0 0-1.875h-3.438a.937.937 0 0 0-.723.34L20.75 17l-2.24-4.89Z" fill="#fff"/></svg>
